dist/img/logo-footer.svg

<?xml version="1.0" encoding="UTF-8"?>
<svg width="108px" height="20px" viewBox="0 0 108 20" version="1.1" xmlns="http://www.w3.org/2000/svg" xmlns:xlink="http://www.w3.org/1999/xlink">
    <!-- Generator: Sketch 40.3 (33839) - http://www.bohemiancoding.com/sketch -->
    <title>logo-footer</title>
    <desc>Created with Sketch.</desc>
    <defs></defs>
    <g id="Symbols" stroke="none" stroke-width="1" fill="none" fill-rule="evenodd">
        <g id="logo-footer" fill="#FFFFFF">
            <g id="Group-2">
                <path d="M34.6533333,6.16 L34.9253333,4.56 L34.7653333,4.4 L27.5333333,4.4 L27.3733333,4.56 L25.4533333,15.44 L25.6133333,15.6 L27.5653333,15.6 L27.7253333,15.44 L28.4933333,11.12 L28.6533333,10.96 L33.3413333,10.96 L33.5013333,10.8 L33.7893333,9.2 L33.6293333,9.04 L29.0533333,9.04 L28.8933333,8.88 L29.3093333,6.48 L29.4693333,6.32 L34.4933333,6.32 L34.6533333,6.16 Z M35.7893333,7.76 L34.9733333,12.4 C34.9093333,12.72 34.8933333,12.992 34.8933333,13.232 C34.8933333,14.736 35.7733333,15.76 37.5973333,15.76 C38.8773333,15.76 39.4853333,14.96 39.4853333,14.96 L39.6453333,14.96 L39.7093333,15.44 L39.8533333,15.6 L41.6133333,15.6 L41.7893333,15.44 L43.1493333,7.76 L42.9893333,7.6 L41.0693333,7.6 L40.9093333,7.76 L40.1733333,11.92 C39.9813333,13.04 39.3733333,13.84 38.2533333,13.84 C37.4693333,13.84 37.1973333,13.408 37.1973333,12.832 C37.1973333,12.688 37.2133333,12.56 37.2453333,12.4 L38.0613333,7.76 L37.9013333,7.6 L35.9493333,7.6 L35.7893333,7.76 Z M50.0933333,9.36 L50.3813333,7.76 L50.2213333,7.6 L49.1013333,7.6 C47.8213333,7.6 47.4213333,8.24 47.4213333,8.24 L47.2613333,8.24 L47.1813333,7.76 L47.0213333,7.6 L45.2293333,7.6 L45.0693333,7.76 L43.7093333,15.44 L43.8533333,15.6 L45.8053333,15.6 L45.9813333,15.44 L46.6693333,11.6 C46.9413333,10.096 47.5173333,9.52 48.7973333,9.52 L49.9333333,9.52 L50.0933333,9.36 Z M57.8213333,15.44 L58.6373333,10.8 C58.6853333,10.528 58.7013333,10.288 58.7013333,10.048 C58.7013333,8.56 57.7093333,7.44 56.0613333,7.44 C54.9413333,7.44 54.3493333,7.872 53.9813333,8.24 L53.8213333,8.24 L53.7413333,7.76 L53.5813333,7.6 L51.7893333,7.6 L51.6293333,7.76 L50.2693333,15.44 L50.4293333,15.6 L52.3813333,15.6 L52.5413333,15.44 L53.2453333,11.44 C53.5013333,10 54.2373333,9.36 55.3573333,9.36 C56.1413333,9.36 56.4133333,9.776 56.4133333,10.368 C56.4133333,10.496 56.3973333,10.656 56.3653333,10.8 L55.5493333,15.44 L55.7093333,15.6 L57.6613333,15.6 L57.8213333,15.44 Z M67.4533333,11.6 C67.5013333,11.28 67.5333333,10.976 67.5333333,10.752 C67.5333333,8.944 66.3493333,7.44 63.9973333,7.44 C61.1173333,7.44 59.6933333,9.744 59.6933333,12.224 C59.6933333,14.032 60.7333333,15.76 63.3733333,15.76 C65.7733333,15.76 66.5093333,14.32 66.8293333,13.36 L66.6693333,13.2 L64.6213333,13.2 L64.4613333,13.36 C64.2533333,13.68 63.8533333,13.84 63.3733333,13.84 C62.2373333,13.84 61.9813333,13.088 61.9813333,12.688 C61.9813333,12.64 61.9973333,12.592 61.9973333,12.56 L62.1573333,12.4 L67.1813333,12.4 L67.3413333,12.24 L67.4533333,11.6 Z M65.0213333,10.8 L62.4613333,10.8 L62.3333333,10.64 C62.3653333,10.48 62.7173333,9.36 63.9973333,9.36 C65.0853333,9.36 65.2293333,10.144 65.2293333,10.496 C65.2293333,10.576 65.2133333,10.64 65.2133333,10.64 L65.0213333,10.8 Z M75.7413333,15.44 L77.1013333,7.76 L76.9413333,7.6 L75.1493333,7.6 L74.9893333,7.76 L74.7173333,8.288 L74.5573333,8.288 C74.5573333,8.288 74.0773333,7.44 72.6373333,7.44 C69.8373333,7.44 68.2853333,9.936 68.2853333,12.32 C68.2853333,14.208 69.6613333,15.76 71.5813333,15.76 C72.6053333,15.76 73.1493333,15.28 73.4053333,15.024 L73.5653333,15.024 L73.6293333,15.44 L73.7893333,15.6 L75.5813333,15.6 L75.7413333,15.44 Z M72.7813333,9.36 C73.8213333,9.36 74.2213333,9.984 74.2213333,10.896 C74.2213333,12.384 73.4853333,13.84 71.9973333,13.84 C70.9733333,13.84 70.5573333,13.216 70.5573333,12.32 C70.5573333,10.848 71.2613333,9.36 72.7813333,9.36 L72.7813333,9.36 Z M78.8293333,7.76 L78.0133333,12.4 C77.9493333,12.72 77.9333333,12.992 77.9333333,13.232 C77.9333333,14.736 78.8133333,15.76 80.6373333,15.76 C81.9173333,15.76 82.5253333,14.96 82.5253333,14.96 L82.6853333,14.96 L82.7493333,15.44 L82.8933333,15.6 L84.6533333,15.6 L84.8293333,15.44 L86.1893333,7.76 L86.0293333,7.6 L84.1093333,7.6 L83.9493333,7.76 L83.2133333,11.92 C83.0213333,13.04 82.4133333,13.84 81.2933333,13.84 C80.5093333,13.84 80.2373333,13.408 80.2373333,12.832 C80.2373333,12.688 80.2533333,12.56 80.2853333,12.4 L81.1013333,7.76 L80.9413333,7.6 L78.9893333,7.6 L78.8293333,7.76 Z M90.5253333,13.088 L92.2853333,15.44 L92.6053333,15.6 L93.3253333,15.6 L93.4853333,15.44 L93.7733333,13.84 L91.9973333,11.696 L91.9973333,11.536 L94.3973333,9.36 L94.6853333,7.76 L94.5253333,7.6 L93.3253333,7.6 L93.0053333,7.76 L90.7813333,9.936 L90.6213333,9.936 L89.0053333,7.76 L88.6853333,7.6 L87.9653333,7.6 L87.8053333,7.76 L87.5173333,9.36 L89.1653333,11.344 L89.1493333,11.504 L86.5733333,13.84 L86.2853333,15.44 L86.4453333,15.6 L87.6453333,15.6 L87.9653333,15.44 L90.3653333,13.088 L90.5253333,13.088 Z M99.5173333,6.8 L99.9013333,4.56 L99.7413333,4.4 L97.4693333,4.4 L97.3093333,4.56 L96.9413333,6.64 L97.1013333,6.8 L97.4213333,6.8 L97.5813333,6.96 L97.5493333,7.12 L96.3013333,8.72 L96.2533333,9.04 L97.3733333,9.04 L97.6933333,8.88 L99.2613333,7.28 L99.5173333,6.8 Z M107.053333,13.072 C107.053333,11.424 105.565333,10.944 104.701333,10.8 C103.821333,10.656 102.925333,10.64 102.925333,10.08 C102.925333,9.424 103.677333,9.36 104.157333,9.36 C104.893333,9.36 105.197333,9.504 105.197333,9.728 C105.197333,9.792 105.181333,9.84 105.181333,9.84 L105.341333,10 L107.293333,10 L107.453333,9.84 C107.469333,9.776 107.485333,9.696 107.485333,9.568 C107.485333,8.256 106.061333,7.44 104.157333,7.44 C102.429333,7.44 100.653333,8.256 100.653333,10.096 C100.653333,11.872 102.445333,12.256 103.309333,12.4 C104.173333,12.544 104.781333,12.56 104.781333,13.072 C104.781333,13.792 103.837333,13.84 103.373333,13.84 C102.653333,13.84 102.221333,13.712 102.221333,13.216 C102.221333,13.152 102.221333,13.104 102.237333,13.04 L102.077333,12.88 L100.141333,12.88 L99.9813333,13.04 C99.9493333,13.168 99.9493333,13.28 99.9493333,13.36 C99.9493333,14.688 101.213333,15.76 103.373333,15.76 C105.165333,15.76 107.053333,15.072 107.053333,13.072 L107.053333,13.072 Z" id="Furneaux’s"></path>
                <path d="M4.5373511,18.3775011 C1.80533023,16.5924179 0,13.5070377 0,10 C0,4.4771525 4.4771525,0 10,0 C15.5228475,0 20,4.4771525 20,10 C20,15.5228475 15.5228475,20 10,20 C9.27787539,20 8.57362812,19.923458 7.89492876,19.7780444 C8.38408282,17.7393721 8.91170864,15.3280551 9.47780836,12.5440853 L12.2431313,12.5440853 L12.5271374,11.2735315 L9.68707604,11.2735315 L10.2550883,9.10611625 C10.6437302,7.61133964 11.0647527,6.47532646 11.5181682,5.69804262 C11.9715838,4.92075878 12.477309,4.53212269 13.0353589,4.53212269 C13.2346625,4.53212269 13.3741728,4.58194783 13.4538943,4.68159961 C13.5236505,4.79121656 13.5585281,4.88090181 13.5585281,4.95065805 C13.5585281,5.00048394 13.4763166,5.16739815 13.3118912,5.45140571 C13.1474658,5.73541327 13.0652543,6.01194279 13.0652543,6.28100258 C13.0652543,6.6696445 13.2147297,7.00845545 13.513685,7.2974456 C13.8126404,7.58643574 14.1663988,7.73092865 14.5749711,7.73092865 C14.9935086,7.73092865 15.3547408,7.58394448 15.6586787,7.28997175 C15.9626167,6.99599902 16.1145833,6.60487167 16.1145833,6.11657798 C16.1145833,5.28946825 15.8181238,4.66665401 15.2251957,4.24811656 C14.6322676,3.8295791 13.8724343,3.62031352 12.9456728,3.62031352 C11.7897122,3.62031352 10.663664,4.09365234 9.56749451,5.0403442 C8.66066337,5.83755839 7.91577753,6.88637758 7.33281465,8.18683323 C6.74985177,9.48728889 6.36868945,10.516178 6.18931626,11.2735315 L3.94716255,11.2735315 L3.66315641,12.5440853 L5.90531012,12.5440853 L4.64970405,17.8505157 C4.61186387,18.0283045 4.57441289,18.2039663 4.5373511,18.3775011 Z" id="Combined-Shape"></path>
            </g>
        </g>
    </g>
</svg>

<svg width="108" height="20" xmlns="http://www.w3.org/2000/svg"><path d="M34.653 6.16l.272-1.6-.16-.16h-7.232l-.16.16-1.92 10.88.16.16h1.952l.16-.16.768-4.32.16-.16h4.688l.16-.16.288-1.6-.16-.16h-4.576l-.16-.16.416-2.4.16-.16h5.024l.16-.16zm1.136 1.6l-.816 4.64a4.14 4.14 0 00-.08.832c0 1.504.88 2.528 2.704 2.528 1.28 0 1.888-.8 1.888-.8h.16l.064.48.144.16h1.76l.176-.16 1.36-7.68-.16-.16h-1.92l-.16.16-.736 4.16c-.192 1.12-.8 1.92-1.92 1.92-.784 0-1.056-.432-1.056-1.008a2.1 2.1 0 01.048-.432l.816-4.64-.16-.16H35.95l-.16.16zm14.304 1.6l.288-1.6-.16-.16h-1.12c-1.28 0-1.68.64-1.68.64h-.16l-.08-.48-.16-.16H45.23l-.16.16-1.36 7.68.144.16h1.952l.176-.16.688-3.84c.272-1.504.848-2.08 2.128-2.08h1.136l.16-.16zm7.728 6.08l.816-4.64c.048-.272.064-.512.064-.752 0-1.488-.992-2.608-2.64-2.608-1.12 0-1.712.432-2.08.8h-.16l-.08-.48-.16-.16H51.79l-.16.16-1.36 7.68.16.16h1.952l.16-.16.704-4c.256-1.44.992-2.08 2.112-2.08.784 0 1.056.416 1.056 1.008a2.1 2.1 0 01-.048.432l-.816 4.64.16.16h1.952l.16-.16zm9.632-3.84c.048-.32.08-.624.08-.848 0-1.808-1.184-3.312-3.536-3.312-2.88 0-4.304 2.304-4.304 4.784 0 1.808 1.04 3.536 3.68 3.536 2.4 0 3.136-1.44 3.456-2.4l-.16-.16h-2.048l-.16.16c-.208.32-.608.48-1.088.48-1.136 0-1.392-.752-1.392-1.152 0-.048.016-.096.016-.128l.16-.16h5.024l.16-.16.112-.64zm-2.432-.8h-2.56l-.128-.16c.032-.16.384-1.28 1.664-1.28 1.088 0 1.232.784 1.232 1.136a.66.66 0 01-.016.144l-.192.16zm10.72 4.64l1.36-7.68-.16-.16H75.15l-.16.16-.272.528h-.16s-.48-.848-1.92-.848c-2.8 0-4.352 2.496-4.352 4.88 0 1.888 1.376 3.44 3.296 3.44 1.024 0 1.568-.48 1.824-.736h.16l.064.416.16.16h1.792l.16-.16zm-2.96-6.08c1.04 0 1.44.624 1.44 1.536 0 1.488-.736 2.944-2.224 2.944-1.024 0-1.44-.624-1.44-1.52 0-1.472.704-2.96 2.224-2.96zm6.048-1.6l-.816 4.64a4.14 4.14 0 00-.08.832c0 1.504.88 2.528 2.704 2.528 1.28 0 1.888-.8 1.888-.8h.16l.064.48.144.16h1.76l.176-.16 1.36-7.68-.16-.16h-1.92l-.16.16-.736 4.16c-.192 1.12-.8 1.92-1.92 1.92-.784 0-1.056-.432-1.056-1.008a2.1 2.1 0 01.048-.432l.816-4.64-.16-.16H78.99l-.16.16zm11.696 5.328l1.76 2.352.32.16h.72l.16-.16.288-1.6-1.776-2.144v-.16l2.4-2.176.288-1.6-.16-.16h-1.2l-.32.16-2.224 2.176h-.16L89.005 7.76l-.32-.16h-.72l-.16.16-.288 1.6 1.648 1.984-.016.16-2.576 2.336-.288 1.6.16.16h1.2l.32-.16 2.4-2.352h.16zM99.517 6.8l.384-2.24-.16-.16H97.47l-.16.16-.368 2.08.16.16h.32l.16.16-.032.16-1.248 1.6-.048.32h1.12l.32-.16 1.568-1.6.256-.48zm7.536 6.272c0-1.648-1.488-2.128-2.352-2.272-.88-.144-1.776-.16-1.776-.72 0-.656.752-.72 1.232-.72.736 0 1.04.144 1.04.368 0 .064-.016.112-.016.112l.16.16h1.952l.16-.16c.016-.064.032-.144.032-.272 0-1.312-1.424-2.128-3.328-2.128-1.728 0-3.504.816-3.504 2.656 0 1.776 1.792 2.16 2.656 2.304.864.144 1.472.16 1.472.672 0 .72-.944.768-1.408.768-.72 0-1.152-.128-1.152-.624 0-.064 0-.112.016-.176l-.16-.16h-1.936l-.16.16c-.032.128-.032.24-.032.32 0 1.328 1.264 2.4 3.424 2.4 1.792 0 3.68-.688 3.68-2.688zM4.537 18.378A9.991 9.991 0 010 10C0 4.477 4.477 0 10 0s10 4.477 10 10-4.477 10-10 10a10.04 10.04 0 01-2.105-.222 216.01 216.01 0 001.583-7.234h2.765l.284-1.27h-2.84l.568-2.168c.389-1.495.81-2.63 1.263-3.408.454-.777.96-1.166 1.517-1.166.2 0 .34.05.419.15.07.11.105.199.105.269 0 .05-.083.216-.247.5-.165.284-.247.56-.247.83 0 .389.15.727.449 1.016.299.29.652.434 1.061.434.419 0 .78-.147 1.084-.441.304-.294.456-.685.456-1.173 0-.828-.297-1.45-.89-1.869-.593-.418-1.353-.628-2.28-.628-1.155 0-2.281.474-3.378 1.42-.906.798-1.651 1.846-2.234 3.147-.583 1.3-.964 2.33-1.144 3.087H3.947l-.284 1.27h2.242L4.65 17.851l-.113.527z" fill="#FFF" fill-rule="evenodd"/></svg>
